X:1
T:Title
%%score { ( 1 3 ) | ( 2 4 ) }
L:1/8
M:4/4
K:D
V:1 treble nm="Grand Piano"
V:3 treble 
V:2 bass 
V:4 bass 
V:1
 z4 z2[Q:1/4=100] [B,D]>[B,G] | [DB]>[DB] [C^A]>[DB] [B,D]2 [B,G]2 | F6 z2 | %3
 [F=c]>[Fc] [=FB]>[^Fc] D2 c2 |[M:3/4] B6 |[M:1/4] [B,D]>[B,G] | %6
[M:4/4] [DB]>[DB] [C^A]>[DB] [B,G]2 =A>B | [Ed]>[E=c] [EB]>[Ec] E2 F>G | %8
 D>G B>[D=c] [CB]<[CA] [DB]>[=CA] |[M:3/4] [B,G]6 |[M:1/4] G>B |[M:4/4] d>d c>d e>d c>d | =c6 z2 | %13
 F->[F=c] F->[Fc] d<c F->[F^A] |[M:3/4] [DB]->[D-GB-] [D-GB-]>[D-GB-] [DGB]2 |[M:1/4] [B,D]>[B,G] | %16
[M:4/4] [DB]>[DB] [C^A]>[DB] [B,G]2 =A>B | [Ed]>[E=c] [EB]>[Ec] E2 F>G | %18
 D>G B>[D=c] [CB]<[CA] [DB]>[=CA] |[M:7/4] [B,G]6 z2 z2 z4 |] %20
V:2
 z4 z2 [G,,G,]>[G,,G,] | [G,,G,]>[G,,G,] [G,,G,]>[G,,G,] [G,,G,]2 [G,,G,]2 | %2
 [A,,D,]2 [A,,D,]2 [D,A,]2 [D,F,]>[D,A,D] | [D,A,]>[D,A,] [D,^G,]>[D,A,] [D,F,]2 [D,A,D]2 | %4
[M:3/4] [G,D]2 [G,,G,]2 [G,,G,]2 |[M:1/4] [G,,G,]>[G,,G,] | %6
[M:4/4] [G,,G,]>[G,,G,] [G,,G,]>[G,,G,] [G,,G,]2 [G,=C]>[G,D] | %7
 [=C,G,]>[C,G,] [C,G,]>[C,G,] [C,G,=C]2 [^C,G,A,]>[C,G,A,] | %8
 [D,G,B,]>[D,G,B,] [D,G,D]>[A,,F,] [A,,G,]<[A,,G,] [D,F,]>[D,F,] |[M:3/4] [G,,G,]6 | %10
[M:1/4][K:treble] [G,B,D]>[G,D] |[M:4/4] [G,G]2 [G,G]2 [G,G]2 [G,G]2[K:bass] | A,4 z4 | %13
 D,->[D,A,] D,->[D,A,] B,<A, z z/ C/ |[M:3/4] G,>G, D,>B,, G,,2 |[M:1/4] [G,,G,]>[G,,G,] | %16
[M:4/4] [G,,G,]>[G,,G,] [G,,G,]>[G,,G,] [G,,G,]2 [G,=C]>[G,D] | %17
 [=C,G,]>[C,G,] [C,G,]>[C,G,] [C,G,=C]2 [^C,G,A,]>[C,G,A,] | %18
 [D,G,B,]>[D,G,B,] [D,G,D]>[A,,F,] [A,,G,]<[A,,G,] [D,F,]>[D,F,] |[M:7/4] [G,,G,]6 z2 z2 z4 |] %20
V:3
 x8 | x8 | =C2 C2 C2 D>F | x8 |[M:3/4] z2 D2 D2 |[M:1/4] x2 |[M:4/4] x8 | x8 | x8 |[M:3/4] x6 | %10
[M:1/4] x2 |[M:4/4] x8 | F>F D>F F2 D>[DF] | =c2 B2 z2 [=CA]2 |[M:3/4] G2 z2 z2 |[M:1/4] x2 | %16
[M:4/4] x8 | x8 | x8 |[M:7/4] x14 |] %20
V:4
 x8 | x8 | x8 | x8 |[M:3/4] x6 |[M:1/4] x2 |[M:4/4] x8 | x8 | x8 |[M:3/4] x6 | %10
[M:1/4][K:treble] x2 |[M:4/4] B,>B, ^A,>B, =C>B, A,>[K:bass]B, | D,>D, F,2 [C,A,]2 [C,F,]>[C,A,] | %13
 A,2 ^G,2 [D,D]2 D,2 |[M:3/4] x6 |[M:1/4] x2 |[M:4/4] x8 | x8 | x8 |[M:7/4] x14 |] %20

